Obsidian/actions/16s/document-new-symbolic.svg

<svg height="16" width="16" xmlns="http://www.w3.org/2000/svg"><path d="m4.5 1c-.831 0-1.5.669-1.5 1.5v1c0-.831.669-1.5 1.5-1.5h7c.831 0 1.5.669 1.5 1.5v-1c0-.831-.669-1.5-1.5-1.5zm-1.5 8v1h2v-1zm8 1.5c0 .277-.223.5-.5.5h-2.5v1h2.5c.277 0 .5-.223.5-.5zm-10 .5v1h2v-1zm4 0v1h2v-1zm-.5-10c-.831 0-1.5.669-1.5 1.5v5.5h2v-4.5c0-.277.223-.5.5-.5h5c.277 0 .5.223.5.5v7c0 .277-.223.5-.5.5h-2.5v2h3.5c.831 0 1.5-.669 1.5-1.5v-9c0-.831-.669-1.5-1.5-1.5zm-1.5 8v2h-2v2h2v2h2v-2h2v-2h-2v-2z" fill="#bebebe"/></svg>

<?xml version="1.0" encoding="UTF-8" standalone="no"?>
<!-- Created with Inkscape (http://www.inkscape.org/) -->

<svg
   xmlns:dc="http://purl.org/dc/elements/1.1/"
   xmlns:cc="http://creativecommons.org/ns#"
   xmlns:rdf="http://www.w3.org/1999/02/22-rdf-syntax-ns#"
   xmlns:svg="http://www.w3.org/2000/svg"
   xmlns="http://www.w3.org/2000/svg"
   xmlns:xlink="http://www.w3.org/1999/xlink"
   xmlns:sodipodi="http://sodipodi.sourceforge.net/DTD/sodipodi-0.dtd"
   xmlns:inkscape="http://www.inkscape.org/namespaces/inkscape"
   width="16"
   height="16"
   id="svg2"
   sodipodi:version="0.32"
   inkscape:version="0.91 r13725"
   version="1.0"
   sodipodi:docname="document-new.svg"
   inkscape:output_extension="org.inkscape.output.svg.inkscape"
   inkscape:export-filename="/home/matt/.icons/Sirocco/scalable/mimetypes/text-plain.png"
   inkscape:export-xdpi="90"
   inkscape:export-ydpi="90"
   sodipodi:modified="true"
   style="display:inline">
  <sodipodi:namedview
     id="base"
     pagecolor="#ffffff"
     bordercolor="#666666"
     borderopacity="1.0"
     inkscape:pageopacity="0.0"
     inkscape:pageshadow="2"
     inkscape:zoom="17.578558"
     inkscape:cx="6.398925"
     inkscape:cy="7.4725727"
     inkscape:document-units="px"
     inkscape:current-layer="layer1"
     width="128px"
     height="128px"
     inkscape:showpageshadow="false"
     inkscape:window-width="1568"
     inkscape:window-height="806"
     inkscape:window-x="102"
     inkscape:window-y="75"
     showguides="true"
     inkscape:guide-bbox="true"
     showgrid="true"
     inkscape:window-maximized="0">
    <sodipodi:guide
       id="guide2226"
       position="32.637397,117.99844"
       orientation="horizontal" />
    <sodipodi:guide
       id="guide2230"
       position="110,57.402344"
       orientation="vertical" />
    <sodipodi:guide
       id="guide2232"
       position="33.760911"
       orientation="horizontal" />
    <sodipodi:guide
       id="guide2231"
       position="46.774696"
       orientation="horizontal" />
    <inkscape:grid
       enabled="true"
       visible="true"
       id="grid3231"
       type="xygrid" />
    <sodipodi:guide
       orientation="1,0"
       position="100,67.625"
       id="guide2713" />
  </sodipodi:namedview>
  <defs
     id="defs4">
    <inkscape:perspective
       sodipodi:type="inkscape:persp3d"
       inkscape:vp_x="0 : 11 : 1"
       inkscape:vp_y="0 : 1000 : 0"
       inkscape:vp_z="22 : 11 : 1"
       inkscape:persp3d-origin="11 : 7.3333333 : 1"
       id="perspective19" />
    <linearGradient
       id="StandardGradient"
       gradientTransform="scale(0.9219544,1.0846523)"
       x1="11.998966"
       y1="0.92195445"
       x2="11.998966"
       y2="19.387045"
       gradientUnits="userSpaceOnUse">
      <stop
         style="stop-color:#000000;stop-opacity:0.86274511;"
         offset="0"
         id="stop3283" />
      <stop
         style="stop-color:#000000;stop-opacity:0.47058824;"
         offset="1"
         id="stop2651" />
    </linearGradient>
    <linearGradient
       inkscape:collect="always"
       xlink:href="#StandardGradient"
       id="linearGradient2549"
       gradientUnits="userSpaceOnUse"
       gradientTransform="matrix(0.9247229,0,0,1.0872097,-2.0600562,0.9976422)"
       x1="11.998966"
       y1="0.92195445"
       x2="11.998966"
       y2="17.478098" />
    <linearGradient
       inkscape:collect="always"
       xlink:href="#StandardGradient"
       id="linearGradient2418"
       gradientUnits="userSpaceOnUse"
       gradientTransform="matrix(0.9247229,0,0,1.0872097,-4.0600562,-3.0023583)"
       x1="11.998966"
       y1="0.92195445"
       x2="11.998966"
       y2="17.478098" />
    <linearGradient
       inkscape:collect="always"
       xlink:href="#StandardGradient"
       id="linearGradient2422"
       gradientUnits="userSpaceOnUse"
       gradientTransform="matrix(0.9247229,0,0,1.0872097,-5.0600562,-1.0023583)"
       x1="11.998966"
       y1="0.92195445"
       x2="11.998966"
       y2="17.478098" />
    <linearGradient
       inkscape:collect="always"
       xlink:href="#StandardGradient"
       id="linearGradient2403"
       gradientUnits="userSpaceOnUse"
       gradientTransform="matrix(0.9247229,0,0,1.0872097,-4.0600562,-3.0023583)"
       x1="11.998966"
       y1="0.92195445"
       x2="11.998966"
       y2="17.478098" />
    <linearGradient
       inkscape:collect="always"
       xlink:href="#StandardGradient"
       id="linearGradient2406"
       gradientUnits="userSpaceOnUse"
       gradientTransform="matrix(0.9247229,0,0,1.0872097,-4.0600562,-3.0023583)"
       x1="11.998966"
       y1="0.92195445"
       x2="11.998966"
       y2="17.478098" />
    <linearGradient
       inkscape:collect="always"
       xlink:href="#StandardGradient"
       id="linearGradient2409"
       gradientUnits="userSpaceOnUse"
       gradientTransform="matrix(0.9247229,0,0,1.0872097,-5.0600562,-3.0023583)"
       x1="11.998966"
       y1="3.6800685"
       x2="11.998966"
       y2="15.638639" />
    <inkscape:perspective
       id="perspective3648"
       inkscape:persp3d-origin="0.5 : 0.33333333 : 1"
       inkscape:vp_z="1 : 0.5 : 1"
       inkscape:vp_y="0 : 1000 : 0"
       inkscape:vp_x="0 : 0.5 : 1"
       sodipodi:type="inkscape:persp3d" />
    <linearGradient
       inkscape:collect="always"
       xlink:href="#StandardGradient"
       id="linearGradient3634"
       gradientUnits="userSpaceOnUse"
       gradientTransform="matrix(0.9247229,0,0,1.0872097,-26.060056,-2.0023583)"
       x1="11.998966"
       y1="3.6800685"
       x2="11.998966"
       y2="15.638639" />
    <clipPath
       clipPathUnits="userSpaceOnUse"
       id="clipPath3641">
      <path
         style="fill:#ff00ff;fill-opacity:1;stroke:none;display:inline"
         d="m -20,0 0,16 16,0 0,-16 -16,0 z m 4.5,1 7,0 C -7.669,1 -7,1.669 -7,2.5 l 0,9 c 0,0.831 -0.669,1.5 -1.5,1.5 l -3.5,0 0,-2 2.5,0 c 0.277,0 0.5,-0.223 0.5,-0.5 l 0,-7 C -9,3.223 -9.223,3 -9.5,3 l -5,0 C -14.777,3 -15,3.223 -15,3.5 l 0,4.5 -2,0 0,-5.5 C -17,1.669 -16.331,1 -15.5,1 z m -1.5,8 2,0 0,2 2,0 0,2 -2,0 0,2 -2,0 0,-2 -2,0 0,-2 2,0 0,-2 z"
         id="path3643" />
    </clipPath>
    <linearGradient
       inkscape:collect="always"
       xlink:href="#StandardGradient"
       id="linearGradient3955"
       gradientUnits="userSpaceOnUse"
       gradientTransform="matrix(0.9247229,0,0,1.0872097,-6.0600562,-2.0023583)"
       x1="11.998966"
       y1="3.6800685"
       x2="11.998966"
       y2="15.638639" />
    <linearGradient
       inkscape:collect="always"
       xlink:href="#StandardGradient"
       id="linearGradient3959"
       gradientUnits="userSpaceOnUse"
       gradientTransform="matrix(0.9247229,0,0,1.0872097,-6.0600562,-2.0023583)"
       x1="11.998966"
       y1="3.6800685"
       x2="11.998966"
       y2="15.638639" />
  </defs>
  <metadata
     id="metadata7">
    <rdf:RDF>
      <cc:Work
         rdf:about="">
        <dc:format>image/svg+xml</dc:format>
        <dc:type
           rdf:resource="http://purl.org/dc/dcmitype/StillImage" />
        <dc:title></dc:title>
      </cc:Work>
    </rdf:RDF>
  </metadata>
  <g
     style="display:inline"
     inkscape:label="Calque 1"
     id="layer1"
     inkscape:groupmode="layer">
    <path
       id="BevelShadow"
       style="opacity:1;fill:#bebebe;fill-opacity:1;stroke:none;stroke-width:1.00000024;stroke-linecap:round;stroke-linejoin:miter;stroke-miterlimit:4;stroke-dasharray:none;stroke-opacity:1;display:inline"
       d="M 4.5,1 C 3.669,1 3,1.669 3,2.5 l 0,1 C 3,2.669 3.669,2 4.5,2 l 7,0 C 12.331,2 13,2.669 13,3.5 l 0,-1 C 13,1.669 12.331,1 11.5,1 l -7,0 z M 3,9 3,10 5,10 5,9 3,9 Z m 8,1.5 c 0,0.277 -0.223,0.5 -0.5,0.5 l -2.5,0 0,1 2.5,0 c 0.277,0 0.5,-0.223 0.5,-0.5 l 0,-1 z M 1,11 l 0,1 2,0 0,-1 -2,0 z m 4,0 0,1 2,0 0,-1 -2,0 z M 4.5,1 C 3.669,1 3,1.669 3,2.5 L 3,8 5,8 5,3.5 C 5,3.223 5.223,3 5.5,3 l 5,0 C 10.777,3 11,3.223 11,3.5 l 0,7 c 0,0.277 -0.223,0.5 -0.5,0.5 l -2.5,0 0,2 3.5,0 c 0.831,0 1.5,-0.669 1.5,-1.5 l 0,-9 C 13,1.669 12.331,1 11.5,1 l -7,0 z M 3,9 l 0,2 -2,0 0,2 2,0 0,2 2,0 0,-2 2,0 0,-2 -2,0 0,-2 -2,0 z" />
  </g>
</svg>
